X:1
T:MacPherson's Lament
M:C
L:1/8
Q:80
C:arr. Kent Hiestand
S:Slow March 4/4
K:HP
{g}AB[ | \
{Gdc}d4e{gfg}fe/2{g}d3/2 | \
{gef}ede/2f3/2{gde}e2{g}AB |
{Gdc}d4e{gfg}fe/2{g}d3/2 | \
{g}B4{GBG}B2{g}AB | \
{Gdc}d4e{gfg}fe/2{g}d3/2 |
{gef}ede/2f3/2{gde}e2{g}AB | \
{Gdc}d4f{gef}edB | \
{G}A4{GAG}A2|]
{g}fg[ | \
{ag}a3f{gf}gfe/2d3/2 | \
{gfg}f2{g}e2{A}e2{g}fg |
{ag}a3f{gf}gfe/2d3/2 | \
{g}B4{GBG}B2{g}fg | \
{ag}a3f{gf}gfe/2d3/2 |
{gfg}f2{g}e2{A}e2{g}AB | \
{Gdc}d4f{gef}edB | \
{G}A4{GAG}A2|]
